img/clients/iwoca.svg

<svg xmlns="http://www.w3.org/2000/svg" width="1000" height="258" viewBox="0, 0, 1000, 258">
  <path d="M407.648 159.17c.25 61.728-34.777 97.47-80.515 97.47-20.93 0-43.75-8.684-64.2-26.367-16.917 17.11-40.16 26.367-64.195 26.367-38.242 0-74.254-22.137-74.343-73.06V134.7c0-10.613-4.36-15.687-16.903-17.55V73.476h41.375c28.906.066 44.465 18.44 44.465 52.51v48.802c.082 13.043 7.973 19.5 17.012 19.5 8.344 0 17.508-5.66 21.59-17.02V73.47h65.832v101.32c.09 13 10.777 19.594 20.73 19.594 15.598 0 22.176-15.09 22.176-36.22 0-5.292-.41-10.964-1.2-16.874-3.51-24.215-12.374-51.168-20.363-68.023h70.45c12.264 31.21 18.088 60.55 18.088 85.906M486.922 163.054c0 18.496 8.586 32.805 27.21 32.805 18.29-.01 27.56-14.31 27.56-32.806 0-18.168-9.27-33.13-27.56-33.13-18.624 0-27.21 14.962-27.21 33.13zm123.3-.047c0 56.47-35.238 93.625-95.917 93.625-60.676 0-95.914-37.156-95.914-93.453 0-56.302 35.24-93.7 95.915-93.876 60.68 0 95.918 37.402 95.918 93.703M716.78 257c-60.675 0-95.917-37.626-95.917-93.923 0-56.617 35.774-93.605 96.117-93.605 16.063 0 31.723 3.094 43.41 10.586 12.172 7.34 19.747 19.726 19.747 38.058v22.98h-45.895l-.574-2.86c-.84-5.592-4.07-8.885-8.71-10.217-2.38-.74-4.978-1.048-7.548-1.048-19.152 0-28.015 14.027-28.015 36.105 0 24.95 13.136 38.457 34.6 38.457 12.845 0 26.997-3.992 41.458-10.914l14.594 54.383C763.703 251.533 747.337 257 716.78 257M867.45 69.02c17.968 0 35.343 5.655 47.612 17.475l10.747-13.027h57.752v120.266c.3 8.8 4.594 13.76 13.317 15.2l2.905.303v43.676h-38.89c-15.485 0-25.65-6.023-33.067-19.594l-1.156-2.3c-15.78 16.475-36.223 24.87-56.96 24.87-40.173 0-75.724-32.258-75.724-92.528 0-60.8 30.524-94.343 73.46-94.343zm21.027 60.874c-6.707.043-13.063 2.39-17.594 7.476-6.668 7.49-8.684 19.906-7.86 29.653.672 7.992 2.24 16.336 7.91 22.44 4.942 5.32 10.536 6.692 17.508 7.032 9.4 0 20.486-1.515 26.622-2.808V132.78c-5.476-1.273-17.66-2.886-26.585-2.886" fill="#0075C9"/>
  <path d="M42.055 72.702c29.175.07 45.242 18.992 45.242 53.29l.03 129.085h-70.51l-.005-120.375c0-10.48-4.402-15.027-16.246-16.785l-.506-.077V72.702zM16.527.175H86.96v58.05H16.528z" fill="#FF681D"/>
</svg>

<svg version="1.1" xmlns="http://www.w3.org/2000/svg" xmlns:xlink="http://www.w3.org/1999/xlink" x="0px" y="0px" width="1000" height="258" viewBox="0, 0, 1000, 258">
  <g id="Layer 1">
    <path d="M407.648,159.171 C407.898,220.898 372.871,256.64 327.133,256.64 C306.203,256.64 283.383,247.956 262.934,230.273 C246.016,247.382 222.773,256.64 198.738,256.64 C160.496,256.64 124.484,234.503 124.395,183.581 L124.395,134.698 C124.395,124.085 120.035,119.011 107.492,117.148 L107.492,73.476 L148.867,73.476 C177.773,73.542 193.332,91.917 193.332,125.987 L193.332,174.788 C193.414,187.831 201.305,194.288 210.344,194.288 C218.688,194.288 227.852,188.628 231.934,177.269 L231.934,73.468 L297.766,73.468 L297.766,174.788 C297.855,187.788 308.543,194.382 318.496,194.382 C334.094,194.382 340.672,179.292 340.672,158.163 C340.672,152.87 340.262,147.198 339.473,141.288 C335.961,117.073 327.098,90.12 319.109,73.265 L389.559,73.265 C401.824,104.476 407.648,133.816 407.648,159.171" fill="#0075C9"/>
    <path d="M486.922,163.054 C486.922,181.55 495.508,195.859 514.133,195.859 C532.422,195.851 541.691,181.55 541.691,163.054 C541.691,144.886 532.422,129.925 514.133,129.925 C495.508,129.925 486.922,144.886 486.922,163.054 z M610.223,163.007 C610.223,219.476 574.984,256.632 514.305,256.632 C453.629,256.632 418.391,219.476 418.391,163.179 C418.391,106.878 453.629,69.48 514.305,69.304 C574.984,69.304 610.223,106.706 610.223,163.007" fill="#0075C9"/>
    <path d="M716.781,256.999 C656.105,256.999 620.863,219.374 620.863,163.077 C620.863,106.46 656.637,69.472 716.98,69.472 C733.043,69.472 748.703,72.566 760.391,80.058 C772.562,87.398 780.137,99.784 780.137,118.116 L780.137,141.097 L734.242,141.097 L733.668,138.237 C732.828,132.644 729.598,129.351 724.957,128.019 C722.578,127.28 719.98,126.972 717.41,126.972 C698.258,126.972 689.395,140.999 689.395,163.077 C689.395,188.026 702.531,201.534 723.996,201.534 C736.84,201.534 750.992,197.542 765.453,190.62 L780.047,245.003 C763.703,251.534 747.336,256.999 716.781,256.999" fill="#0075C9"/>
    <path d="M867.449,69.019 C885.418,69.019 902.793,74.675 915.062,86.495 L925.809,73.468 L983.562,73.468 L983.562,193.734 C983.863,202.534 988.156,207.495 996.879,208.933 L999.785,209.237 L999.785,252.913 L960.895,252.913 C945.41,252.913 935.246,246.89 927.828,233.319 L926.672,231.019 C910.891,247.495 890.449,255.89 869.711,255.89 C829.539,255.89 793.988,223.632 793.988,163.362 C793.988,102.562 824.512,69.019 867.449,69.019 z M888.477,129.894 C881.77,129.937 875.414,132.284 870.883,137.37 C864.215,144.859 862.199,157.276 863.023,167.023 C863.695,175.015 865.262,183.359 870.934,189.464 C875.875,194.784 881.469,196.155 888.441,196.495 C897.84,196.495 908.926,194.98 915.062,193.687 L915.062,132.78 C909.586,131.507 897.402,129.894 888.477,129.894" fill="#0075C9"/>
    <path d="M42.055,72.702 C71.23,72.773 87.297,91.694 87.297,125.991 L87.328,255.077 L16.816,255.077 L16.812,134.702 C16.812,124.222 12.41,119.675 0.566,117.917 L0.06,117.84 L0.06,72.702 z" fill="#FF681D"/>
    <path d="M16.527,0.175 L86.961,0.175 L86.961,58.226 L16.527,58.226 z" fill="#FF681D"/>
  </g>
  <defs/>
</svg>
